X: 1902
T: Uzun Yıllar Bekledim
C: Zeki Müren
O: Turkey
F: http://compmusic.upf.edu/node/140
N: kurdilihicazkar--sarki--semai--uzun_yillar--zeki_muren
N: makam= kurdilihicazkar
N: form= sarki
N: usul= semai = 3/4
M: 3/4
L: 1/16
K: C _B _e _A 
Q: 1/4=120
%%MIDI tuningsystem comma53
c4 g4 g4  | c4 g4 g4  | a4 g4 f4  | g12  | \
w:  ARANAĞME  |   |   |   | 
b4 a4 g4  | b4 a4 g4  | f4 e4 f4  | g12  | \
w:   |   |   |   | 
d4 e4 f4  | 
w:   | 
d4 c4 d4  | B4 c4 A4  | G12  | d4 e4 f4  | \
w:   |   |   |   | 
d4 c4 d4  | B4 c4 A4  | G12  | c4 g8  | g8 g4  | 
w:   |   |   |  U zun   |  yıl lar   | 
a4 g4 f4  | g12  | a4 g4 f4  | g12  | g4 a8  | \
w:  bek *  le  |  dim   |  SAZ  |   |  ha kî  | 
g4 f8  | e2d2 f4 e2d2  | d12  | B4 c4 A4  | 
w:  kat_ ol  |  du  *  rû  |  yam    |  SAZ  | 
G12  | c4 g8  | g8 g4  | a4 g4 f4  | g12  | a4 g4 f4  | g12  | \
w:   |  U zun   |  yıl lar   |  bek *  le  |  dim   |  SAZ  |   | 
g4 a8  | g4 f8  | e2d2 f4 e2d2  | 
w:  ha kî  |  kat_ ol  |  du  *  rû  | 
d12  | g4 a8  | g4 f8  | e2d2 f4 e2d2  | d12  | \
w:  yam    |  SAZ  |   |   |   | 
g8 g4  | g4 g8  | a4 g2f2 e2d2  | c12  | 
w:  Kok la  |  ma ya   |  kı ya  |  mam   | 
d4 e4 z4  | c4 d4 z4  | B4 c4 A4  | G12  | \
w:  be nim   |  gü zel   |  ma nol  |  yam    | 
d4 e4 z4  | c4 d4 z4  | B4 c4 A4  | G12  | \
w:  SAZ  |   |   |   | 
g8 g4  | 
w:  Kok la  | 
g4 g8  | a4 g2f2 e2d2  | c12  | d4 e4 z4  | \
w:  ma ya   |  kı ya  |  mam   |  be nim   | 
c4 d4 z4  | B4 c4 A4  | G12  | d4 e4 z4  | 
w:  gü zel   |  ma nol  |  yam    |  SAZ  | 
c4 d4 z4  | f4 e4 d4  | d12  | c8 d4  | d4 d8  | \
w:   |   |   |  Naz lı   |  çi çe  | 
f4 e4 e2d2  | d12  | f4 e4 e2d2  | d12  | 
w:  ğim *  sin   |  sen   |  SAZ  |   | 
d4 e8  | c4 B8  | c2d2 B2A2 A2G2  | G12  | \
w:  sev da  |  na  da  |  ya *  na  |  mam    | 
d4 e8  | c4 d8  | f4 e4 e2d2  | d12  | c8 d4  | 
w:  SAZ  |   |   |   |  Naz lı   | 
d4 d8  | f4 e4 e2d2  | d12  | f4 e4 e2d2  | d12  | \
w:  çi çe  |  ğim *  sin   |  sen   |  SAZ  |   | 
g4 a8  | g4 f8  | b4 a4 a2g2  | g12  | 
w:  sev da  |  na  da  |  ya na  |  mam    | 
g4 a8  | g4 f8  | b4 a4 a2g2  | g12  | g8 g4  | \
w:  SAZ  |   |   |   |  Kok la  | 
g4 g8  | a4 g2f2 e2d2  | c12  | d4 e4 z4  | 
w:  ma ya   |  kı ya  |  mam   |  be nim   | 
c4 d4 z4  | B4 c4 A4  | G12  | |


